!!!!SEGMENT: pl-kk--kk-i-7--046-004_luython-carl--missa-agnus-dei.krn
!!!cenid: 16xx:851
!!!COM: Luython, Carl
!!!COM-rismID: pe30012976
!!!CDT: ~1557-1620
!!!CNT:
!!!OPR: Missa
!!!OTL: Agnus Dei
!!!OMV: 004
!!!PDT:
!!!AGN: Sacred; Mass
!!!SMS-siglum: PL-Kk
!!!SMS-shelfmark: Kk.I.7
!!!SMS-shelfwork: 046-004 M
!!!SMS-variant:
!!!SMS-altvar:
!!!NIFC-rismSourceID: 300258077
!!!NIFC-rismChildID: 300258123
!!!NIFC-islandoraID: pl-kk:1956
!!!URL-pdf-islandora: https://repozytorium.nifc.pl/islandora/object/pl-kk%3A1956/datastream/PDF/view
!!!URL-scan: https://polish.musicsources.pl/pl/lokalizacje/galeria/rekopisy/6140 @EN{Scan on Polish Music Sources Website} @PL{Skany w portalu Dziedzictwo Muzyki Polskiej w otwartym dostępie}
!!!ONB-nifc: UWAGA: C (skan 0041, s.76-77), A (0125-0126, s.70-72), T(0201-0202, s.66-68), B(0290-0291, s.67-68). Części Mszy: 1. Kyrie, 2. Et in terra, 3. Sanctus, 4. Agnus Dei
!!!AIN: 1 alto 1 bass 1 soprn 1 tenor
!!!key:
**kern	**text	**text	**kern	**text	**text	**kern	**text	**text	**kern	**text	**text
*part4	*part4	*part4	*part3	*part3	*part3	*part2	*part2	*part2	*part1	*part1	*part1
*staff4	*staff4	*staff4	*staff3	*staff3	*staff3	*staff2	*staff2	*staff2	*staff1	*staff1	*staff1
*Ibass	*	*	*Itenor	*	*	*Ialto	*	*	*Isoprn	*	*
*I"BASSVS.	*	*	*I"TENOR.	*	*	*I"ALTVS.	*	*	*I"CANTVS.	*	*
*I'B	*	*	*I'T	*	*	*I'A	*	*	*I'S	*	*
*clefF4	*	*	*clefC4	*	*	*clefC3	*	*	*clefC3	*	*
*k[b-]	*	*	*k[b-]	*	*	*k[b-]	*	*	*k[b-]	*	*
*d:	*	*	*d:	*	*	*d:	*	*	*d:	*	*
*M2/1	*	*	*M2/1	*	*	*M2/1	*	*	*M2/1	*	*
*met(c|)	*	*	*met(c|)	*	*	*met(c|)	*	*	*met(c|)	*	*
=1	=1	=1	=1	=1	=1	=1	=1	=1	=1	=1	=1
*xywh-#291:1258,2898,5885,695	*	*	*xywh-#201:7137,3321,5852,706	*	*	*xywh-#125:7319,2838,5982,685	*	*	*xywh-#41:7228,2812,5692,852	*	*
!LO:TX:t=P:problem=znaki[BB- B-]	!	!	!	!	!	!	!	!	!LO:TX:t=P:problem=kreska pseudotaktowa	!	!
2.GG/	A-	.	1.G	A-	.	2r	.	.	1r	.	.
.	.	.	.	.	.	1B-	A-	.	.	.	.
4AA/	.	.	.	.	.	.	.	.	.	.	.
4BB-/	.	.	.	.	.	.	.	.	0d	A-	.
4C/	.	.	.	.	.	.	.	.	.	.	.
*2\right	*	*	*	*	*	*	*	*	*	*	*
!LO:TX:t=P:problem=kreska pseudotaktowa	!	!	!LO:TX:t=P:problem=kreska pseudotaktowa	!	!	!LO:TX:t=P:problem=kreska pseudotaktowa	!	!	!	!	!
2D\	.	.	2F#X/	-gn(us)	.	2A/	-gnus	.	.	.	.
=2-	=2-	=2-	=2-	=2-	=2-	=2-	=2-	=2-	=2-	=2-	=2-
*	*	*	*2\right	*	*	*	*	*	*	*	*
2GG,</	-gnus	.	2.B-\	De-	.	2.G/	De-	.	.	.	.
2.G\	De-	.	.	.	.	.	.	.	.	.	.
!	!	!	!LO:TX:t=P:problem=kreska pseudotaktowa	!	!	!	!	!	!	!	!
.	.	.	4A\	.	.	4A/	.	.	.	.	.
!	!	!	!	!	!	!	!	!	!LO:TX:t=P:problem=kreska pseudotaktowa	!	!
.	.	.	4G/	.	.	4B-/	.	.	1d	-gn(us)	.
!	!	!	!	!	!	!	!	!	!	!	!
4F\	.	.	4A/	.	.	4c/	.	.	.	.	.
4E-X\	.	.	1B-\	.	.	1d\	.	.	.	.	.
!LO:TX:t=P:problem=kreska pseudotaktowa	!	!	!	!	!	!	!	!	!	!	!
4D\	.	.	.	.	.	.	.	.	.	.	.
=3-	=3-	=3-	=3-	=3-	=3-	=3-	=3-	=3-	=3-	=3-	=3-
1Eny	.	.	.	.	.	.	.	.	1G	De-	.
*	*	*	*	*	*	*2\right	*	*	*	*	*
.	.	.	4A\	.	.	2c\	.	.	.	.	.
!	!	!	!LO:TX:t=P:problem=kreska pseudotaktowa	!	!	!	!	!	!	!	!
.	.	.	4G\	.	.	.	.	.	.	.	.
!LO:TX:t=P:problem=kreska pseudotaktowa	!	!	!	!	!	!LO:TX:t=P:problem=kreska pseudotaktowa	!	!	!LO:TX:t=P:problem=kreska pseudotaktowa	!	!
1D	-i.	.	2A\	.	.	1d	-i.	.	1F#X	-i	.
!	!	!	!LO:TX:t=P:problem=kreska pseudotaktowa	!	!	!	!	!	!	!	!
.	.	.	2A,<\	-i	.	.	.	.	.	.	.
=4-	=4-	=4-	=4-	=4-	=4-	=4-	=4-	=4-	=4-	=4-	=4-
00r	.	.	2.D/	a-	.	2r	.	.	2r	.	.
.	.	.	.	.	.	1f	A-	.	1d	a-	.
.	.	.	4E/	.	.	.	.	.	.	.	.
.	.	.	4Fny/	.	.	.	.	.	.	.	.
.	.	.	4G/	.	.	.	.	.	.	.	.
*	*	*	*	*	*	*	*	*	*2\right	*	*
!	!	!	!LO:TX:t=P:problem=kreska pseudotaktowa	!	!	!	!	!	!LO:TX:t=P:problem=kreska pseudotaktowa	!	!
.	.	.	2A\	.	.	2e\	-gn(us)	.	2c#X\	-gn(us)	.
=5-	=5-	=5-	=5-	=5-	=5-	=5-	=5-	=5-	=5-	=5-	=5-
.	.	.	2D,</	-gn(us)	.	2.d\	De-	.	2.f\	De-	.
.	.	.	2.d\	De-	.	.	.	.	.	.	.
!	!	!	!	!	!	!LO:TX:t=P:problem=kreska pseudotaktowa	!	!	!	!	!
.	.	.	.	.	.	4e\	.	.	4e\	.	.
.	.	.	.	.	.	1.f	.	.	0d	.	.
.	.	.	4c\	.	.	.	.	.	.	.	.
.	.	.	4B-\	.	.	.	.	.	.	.	.
.	.	.	4A\	.	.	.	.	.	.	.	.
=6-	=6-	=6-	=6-	=6-	=6-	=6-	=6-	=6-	=6-	=6-	=6-
!LO:TX:t=P:problem=kreska pseudotaktowa	!	!	!	!	!	!	!	!	!	!	!
0r	.	.	1B-	.	.	.	.	.	.	.	.
.	.	.	.	.	.	4e\	.	.	.	.	.
.	.	.	.	.	.	4d\	.	.	.	.	.
!	!	!	!LO:TX:t=P:problem=kreska pseudotaktowa	!	!	!	!	!	!LO:TX:t=P:problem=kreska pseudotaktowa	!	!
.	.	.	0A	-i	.	2e\	.	.	1c#X	-i.	.
!	!	!	!	!	!	!LO:TX:t=P:problem=kreska pseudotaktowa	!	!	!	!	!
.	.	.	.	.	.	2e,<\	-i.	.	.	.	.
=7-	=7-	=7-	=7-	=7-	=7-	=7-	=7-	=7-	=7-	=7-	=7-
2.D/	A-	.	.	.	.	1d	A-	.	2.f\	A-	.
4C/	.	.	.	.	.	.	.	.	4e\	.	.
!	!	!	!LO:TX:t=P:problem=kreska pseudotaktowa	!	!	!	!	!	!	!	!
2BB-/	-gn(us)	.	0r	.	.	2G/	-gn(us)	.	2d\	.	.
!LO:TX:t=P:problem=kreska pseudotaktowa	!	!	!	!	!	!	!	!	!	!	!
2AA/	.	.	.	.	.	2.A/	De-	.	2c#X\	-gn(us)	.
=8-	=8-	=8-	=8-	=8-	=8-	=8-	=8-	=8-	=8-	=8-	=8-
!	!	!	!	!	!	!	!	!	!LO:TX:t=P:problem=kreska pseudotaktowa	!	!
1BB-	De-	.	.	.	.	.	.	.	1d	De-	.
.	.	.	.	.	.	8G/L	.	.	.	.	.
.	.	.	.	.	.	8F/J	.	.	.	.	.
!	!	!	!	!	!	!LO:TX:t=P:problem=kreska pseudotaktowa	!	!	!	!	!
.	.	.	.	.	.	2G/	.	.	.	.	.
2AA,</	-i	.	2r	.	.	2A,</	-i	.	2c#X,</	-i	.
!	!	!	!LO:TX:t=P:problem=kreska pseudotaktowa	!	!	!	!	!	!	!	!
2AA/	qui	.	2A\	Qui	.	2A/	Qui	.	2c#\	Qui	.
=9-	=9-	=9-	=9-	=9-	=9-	=9-	=9-	=9-	=9-	=9-	=9-
!LO:TX:t=P:problem=kreska pseudotaktowa	!	!	!	!	!	!	!	!	!	!	!
1D	tol-	.	1F#X	tol-	.	1A	tol-	.	1d	tol-	.
2GG/	-lis	.	2.G/	-lis	.	2Bn/	-lis	.	2d\	-lis	.
!	!	!	!	!	!	!LO:TX:t=P:problem=kreska pseudotaktowa	!	!	!LO:TX:t=P:problem=kreska pseudotaktowa	!	!
2C/	pec-	.	.	.	.	2c\	pec-	.	2e\	pec-	.
.	.	.	4G/	pec-	.	.	.	.	.	.	.
=10-	=10-	=10-	=10-	=10-	=10-	=10-	=10-	=10-	=10-	=10-	=10-
2BB-/	-ca-	.	2B-\	-ca-	.	2.d\	-ca-	.	2f\	-ca-	.
!LO:TX:t=P:problem=kreska pseudotaktowa	!	!	!LO:TX:t=P:problem=kreska pseudotaktowa	!	!	!	!	!	!	!	!
2GG/	-ta	.	2B-\	-ta	.	.	.	.	2g\	-ta	.
.	.	.	.	.	.	4d\	-ta	.	.	.	.
1D	mun-	.	1.A	mun-	.	1d	mun-	.	1f#X	mun-	.
=11-	=11-	=11-	=11-	=11-	=11-	=11-	=11-	=11-	=11-	=11-	=11-
!	!	!	!	!	!	!LO:TX:t=P:problem=kreska pseudotaktowa	!	!	!	!	!
2D,<\	-di.	.	.	.	.	2d,<\	-di	.	2f#X,<\	-di	.
!	!	!	!LO:TX:t=P:problem=kreska pseudotaktowa	!	!	!	!	!	!	!	!
2.G\	mi-	Do-	2G/	-di;	.	1B-X	mi-	Do-	1g	mi-	Do-
.	.	.	2.d\	mi-	Do-	.	.	.	.	.	.
8F\L	.	.	.	.	.	.	.	.	.	.	.
8E\J	.	.	.	.	.	.	.	.	.	.	.
*	*	*	*	*	*	*custos:c	*	*	*	*	*
!	!	!	!	!	!	!	!	!	!LO:TX:t=P:problem=kreska pseudotaktowa	!	!
!	!	!	!	!	!	!LO:TX:t=P:problem=kreska pseudotaktowa	!	!	!	!	!
4D\	.	.	.	.	.	2d\	-ſe-	-na	2fn\	-se-	-na
4E\	-se-	.	8c\L	-se-	.	.	.	.	.	.	.
!	!	!	!LO:TX:t=P:problem=kreska pseudotaktowa	!	!	!	!	!	!	!	!
.	.	.	8B-\J	.	.	.	.	.	.	.	.
=12-	=12-	=12-	=12-	=12-	=12-	=12-	=12-	=12-	=12-	=12-	=12-
!	!	!	!LO:LB:g=original	!	!	!LO:LB:g=original	!	!	!	!	!
*	*	*	*xywh-#201:7169,3868,5885,648	*	*	*xywh-#125:7328,3354,6084,820	*	*	*	*	*
2F\	-re-	.	2A\	-re-	.	2c\	-re-	no-	2f\	-re-	no-
*custos:C	*	*	*	*	*	*	*	*	*	*	*
!	!	!	!	!	!	!LO:TX:t=P:problem=kreska pseudotaktowa	!	!	!	!	!
!LO:TX:t=P:problem=kreska pseudotaktowa	!	!	!	!	!	!	!	!	!	!	!
2BB-/	-re	-na	2d\	-re	-na	2f\	-re	-bis	2d\	-re	-bis
!LO:LB:g=original	!	!	!	!	!	!	!	!	!	!	!
*xywh-#291:1235,3444,5870,882	*	*	*	*	*	*	*	*	*	*	*
2C/	no-	no-	2c\	no-	no-	4e\	no-	pa-	4g\	no-	pa-
.	.	.	.	.	.	4d\	.	.	4f\	.	.
!	!	!	!LO:TX:t=P:problem=kreska pseudotaktowa	!	!	!	!	!	!	!	!
2D\	.	-bis	2A\	.	-bis	2.d\	.	.	4f\	.	.
.	.	.	.	.	.	.	.	.	8e\L	.	.
.	.	.	.	.	.	.	.	.	8d\J	.	.
=13-	=13-	=13-	=13-	=13-	=13-	=13-	=13-	=13-	=13-	=13-	=13-
*	*	*	*	*	*	*	*	*	*custos:d	*	*
!	!	!	!	!	!	!	!	!	!LO:TX:t=P:problem=kreska pseudotaktowa	!	!
1AA	.	pa-	1A	.	pa-	.	.	.	1e	.	.
.	.	.	.	.	.	8c/L	.	.	.	.	.
.	.	.	.	.	.	8Bn/J	.	.	.	.	.
!	!	!	!	!	!	!LO:TX:t=P:problem=kreska pseudotaktowa	!	!	!	!	!
.	.	.	.	.	.	2c\	.	.	.	.	.
!LO:TX:t=P:problem=kreska pseudotaktowa	!	!	!	!	!	!	!	!	!LO:LB:g=original	!	!
*	*	*	*	*	*	*	*	*	*xywh-#41:7228,3453,5720,690	*	*
1D	bis.	-cem.	2A,<\	-bis	-cem	2d,<\	-bis.	-cem.	2d\	-bis	cem
.	.	.	2.D/	mi-	Do-	1f\	mi-	Do-	2.d\	mi-	Do-
=14-	=14-	=14-	=14-	=14-	=14-	=14-	=14-	=14-	=14-	=14-	=14-
!LO:TX:t=P:problem=kreska pseudotaktowa	!	!	!	!	!	!	!	!	!	!	!
00r	.	.	.	.	.	.	.	.	.	.	.
.	.	.	4E/	.	.	.	.	.	8cny/L	.	.
.	.	.	.	.	.	.	.	.	8B-/J	.	.
!	!	!	!	!	!	!LO:TX:t=P:problem=kreska pseudotaktowa	!	!	!	!	!
.	.	.	4Fny/	.	.	2f\	-ſe-	-na	4A/	.	.
!	!	!	!	!	!	!	!	!	!LO:TX:t=P:problem=kreska pseudotaktowa	!	!
.	.	.	4G/	.	.	.	.	.	4B-/	.	.
.	.	.	2A\	.	.	4e\	-re-	.	2c\	.	.
.	.	.	.	.	.	4f\	.	.	.	.	.
.	.	.	2Bn\	-se-	-na	2.g\	-re	no-	2d\	-se-	na
=15-	=15-	=15-	=15-	=15-	=15-	=15-	=15-	=15-	=15-	=15-	=15-
!	!	!	!LO:N:acc=-	!	!	!	!	!	!	!	!
.	.	.	2cn\	-re-	no-	.	.	.	4en\	-re-	no-
.	.	.	.	.	.	4f\	.	bis	4d\	-re	bis
.	.	.	2d\	-re	-bis	4f\	no-	pa-	2.d\	no-	pa-
.	.	.	.	.	.	8e\L	.	.	.	.	.
!	!	!	!	!	!	!LO:TX:t=P:problem=kreska pseudotaktowa	!	!	!	!	!
.	.	.	.	.	.	8d\J	.	.	.	.	.
!	!	!	!LO:TX:t=P:problem=kreska pseudotaktowa	!	!	!	!	!	!	!	!
.	.	.	1A	no-	pa-	1e	.	.	.	.	.
.	.	.	.	.	.	.	.	.	8c#X/L	.	.
!	!	!	!	!	!	!	!	!	!LO:SIC:v:s=8Bn	!	!
.	.	.	.	.	.	.	.	.	8B-/J	.	.
!	!	!	!	!	!	!	!	!	!LO:TX:t=P:problem=kreska pseudotaktowa	!	!
.	.	.	.	.	.	.	.	.	2c#\	.	.
=16-	=16-	=16-	=16-	=16-	=16-	=16-	=16-	=16-	=16-	=16-	=16-
!	!	!	!	!	!	!LO:TX:t=P:problem=kreska pseudotaktowa	!	!	!	!	!
2r	.	.	2D,</	-bis	-cem.	1d,<	-bis.	cem.	2d,<\	-bis.	cem
2.D/	mi-	Do-	2.A\	mi-	Do-	.	.	.	2.f\	mi-	Do-
.	.	.	.	.	.	1A	mi-	Do-	.	.	.
8C/L	.	.	4B-\	-se-	-na	.	.	.	8e\L	.	.
8BB-/J	.	.	.	.	.	.	.	.	8d\J	.	.
!	!	!	!LO:TX:t=P:problem=kreska pseudotaktowa	!	!	!	!	!	!	!	!
4AA/	.	.	[<2c\	-re-	no-	.	.	.	4cny\	.	.
!LO:TX:t=P:problem=kreska pseudotaktowa	!	!	!	!	!	!	!	!	!LO:TX:t=P:problem=kreska pseudotaktowa	!	!
4BB-/	-se-	-na	.	.	.	.	.	.	4d\	.	.
=17-	=17-	=17-	=17-	=17-	=17-	=17-	=17-	=17-	=17-	=17-	=17-
!	!	!	!LO:N:xstem:cue	!	!	!	!	!	!	!	!
2C/	-re-	no-	4c\]	.	.	2G/	-ſe-	-na	2e\	.	.
.	.	.	4B-\	.	.	.	.	.	.	.	.
2F\	-re	-bis	2.A\	-re	-bis	1c	-re-	no-	2f\	-se-	na
2G\	no-	pa-	.	.	.	.	.	.	2.d\	-re-	no-
.	.	.	4G/	.	.	.	.	.	.	.	.
!	!	!	!LO:TX:t=P:problem=kreska pseudotaktowa	!	!	!LO:TX:t=P:problem=kreska pseudotaktowa	!	!	!	!	!
2GG/	.	.	[<2G/	no-	pa-	2B-y/	-re	-bis	.	.	.
!	!	!	!	!	!	!	!	!	!LO:TX:t=P:problem=kreska pseudotaktowa	!	!
.	.	.	.	.	.	.	.	.	4d\	-re	-bis
=18-	=18-	=18-	=18-	=18-	=18-	=18-	=18-	=18-	=18-	=18-	=18-
!	!	!	!LO:N:xstem:cue	!	!	!	!	!	!	!	!
1D	.	.	4G/]	.	.	1A	no-	pa-	1d	no-	pa-
.	.	.	8F#X/L	.	.	.	.	.	.	.	.
.	.	.	8E/J	.	.	.	.	.	.	.	.
.	.	.	2F#/	.	.	.	.	.	.	.	.
!LO:N:vis=0	!	!	!LO:N:vis=0	!	!	!LO:N:vis=0	!	!	!LO:N:vis=0	!	!
!LO:TX:b:i:t=Agnus 2dum\nTacet.	!	!	!	!	!	!	!	!	!	!	!
1GG;	-bis.	-cem.	1G;	-bis.	-cem.	1G;	-bis.	-cem.	1Bn;	-bis.	-cem.
=20||	=20||	=20||	=20||	=20||	=20||	=20||	=20||	=20||	=20||	=20||	=20||
*	*	*	*M2/1	*	*	*M2/1	*	*	*	*	*
*	*	*	*met(c|)	*	*	*met(c|)	*	*	*	*	*
!	!	!	!	!	!	!LO:TX:b:t=a 3.	!	!	!	!	!
0ryy	.	.	00r	.	.	0r	.	.	1.d	A-	.
.	.	.	.	.	.	.	.	.	2c/	.	.
=21-	=21-	=21-	=21-	=21-	=21-	=21-	=21-	=21-	=21-	=21-	=21-
!	!	!	!	!	!	!LO:TX:t=P:problem=kreska pseudotaktowa	!	!	!	!	!
0ryy	.	.	.	.	.	1r	.	.	2B-/	-gn(us)	.
!	!	!	!	!	!	!	!	!	!LO:TX:t=P:problem=kreska pseudotaktowa	!	!
.	.	.	.	.	.	.	.	.	2G/	.	.
.	.	.	.	.	.	2r	.	.	2.d\	De-	.
.	.	.	.	.	.	1d\	A-	.	.	.	.
.	.	.	.	.	.	.	.	.	4e\	.	.
=22-	=22-	=22-	=22-	=22-	=22-	=22-	=22-	=22-	=22-	=22-	=22-
!	!	!	!LO:TX:t=P:problem=kreska pseudotaktowa	!	!	!	!	!	!	!	!
0ryy	.	.	0r	.	.	.	.	.	2f\	.	.
!	!	!	!	!	!	!LO:TX:t=P:problem=kreska pseudotaktowa	!	!	!	!	!
.	.	.	.	.	.	2c/	-gn(us)	.	2e\	.	.
.	.	.	.	.	.	2B-/	De-	.	2.d\	.	.
!	!	!	!	!	!	!LO:TX:t=P:problem=kreska pseudotaktowa	!	!	!	!	!
.	.	.	.	.	.	2G/	.	.	.	.	.
.	.	.	.	.	.	.	.	.	4c/	.	.
=23-	=23-	=23-	=23-	=23-	=23-	=23-	=23-	=23-	=23-	=23-	=23-
0ryy	.	.	2r	.	.	2.d\	.	.	1B-	.	.
.	.	.	1d	A-	.	.	.	.	.	.	.
.	.	.	.	.	.	4e\	.	.	.	.	.
!	!	!	!	!	!	!	!	!	!LO:TX:t=P:problem=kreska pseudotaktowa	!	!
.	.	.	.	.	.	2f\	.	.	1A	-i,	.
!	!	!	!LO:TX:t=P:problem=kreska pseudotaktowa	!	!	!LO:TX:t=P:problem=kreska pseudotaktowa	!	!	!	!	!
.	.	.	2c\	-gn(us)	.	2e\	.	.	.	.	.
=24-	=24-	=24-	=24-	=24-	=24-	=24-	=24-	=24-	=24-	=24-	=24-
0ryy	.	.	2B-\	De-	.	2.d\	.	.	2r	.	.
.	.	.	2G/	.	.	.	.	.	2d\	a-	.
.	.	.	.	.	.	4c/	.	.	.	.	.
.	.	.	2.d\	.	.	2B-/	.	.	1.f	.	.
!	!	!	!	!	!	!LO:TX:t=P:problem=kreska pseudotaktowa	!	!	!	!	!
.	.	.	.	.	.	2A/	-i.	.	.	.	.
.	.	.	4c\	.	.	.	.	.	.	.	.
=25-	=25-	=25-	=25-	=25-	=25-	=25-	=25-	=25-	=25-	=25-	=25-
!	!	!	!	!	!	!LO:LB:g=original	!	!	!	!	!
*	*	*	*	*	*	*xywh-#125:7328,3938,5957,668	*	*	*	*	*
0ryy	.	.	2B-\	.	.	0r	.	.	.	.	.
*	*	*	*custos:G	*	*	*	*	*	*	*	*
!	!	!	!LO:TX:t=P:problem=kreska pseudotaktowa	!	!	!	!	!	!	!	!
.	.	.	2A\	.	.	.	.	.	2c/	.	.
!	!	!	!LO:LB:g=original	!	!	!	!	!	!	!	!
*	*	*	*xywh-#201:7162,4362,5981,693	*	*	*	*	*	*	*	*
.	.	.	1G	.	.	.	.	.	2d\	.	.
*	*	*	*	*	*	*	*	*	*custos:f	*	*
!	!	!	!	!	!	!	!	!	!LO:TX:t=P:problem=kreska pseudotaktowa	!	!
.	.	.	.	.	.	.	.	.	2e\	-gn(us)	.
=26-	=26-	=26-	=26-	=26-	=26-	=26-	=26-	=26-	=26-	=26-	=26-
!	!	!	!LO:TX:t=P:problem=kreska pseudotaktowa	!	!	!	!	!	!LO:LB:g=original	!	!
*	*	*	*	*	*	*	*	*	*xywh-#41:7228,3995,5833,549	*	*
0ryy	.	.	1D	-i	.	2r	.	.	1f	De-	.
!	!	!	!	!	!	!LO:TX:t=P:problem=kreska pseudotaktowa	!	!	!	!	!
.	.	.	.	.	.	2d\	A-	.	.	.	.
.	.	.	2r	.	.	1.f	.	.	1.d	.	.
.	.	.	2d\	A-	.	.	.	.	.	.	.
=27-	=27-	=27-	=27-	=27-	=27-	=27-	=27-	=27-	=27-	=27-	=27-
0ryy	.	.	2B-\	.	.	.	.	.	.	.	.
!	!	!	!LO:TX:t=P:problem=kreska pseudotaktowa	!	!	!LO:TX:t=P:problem=kreska pseudotaktowa	!	!	!	!	!
.	.	.	2A\	.	.	2c/	-gn(us)	.	1f	.	.
.	.	.	2B-\	.	.	2d\	De-	.	.	.	.
!	!	!	!	!	!	!	!	!	!LO:TX:t=P:problem=kreska pseudotaktowa	!	!
.	.	.	2c\	-gnus	.	2e\	.	.	2e\	.	.
=28-	=28-	=28-	=28-	=28-	=28-	=28-	=28-	=28-	=28-	=28-	=28-
0ryy	.	.	2d\	De-	.	2f\	.	.	2d\	.	.
!	!	!	!LO:TX:t=P:problem=kreska pseudotaktowa	!	!	!LO:TX:t=P:problem=kreska pseudotaktowa	!	!	!	!	!
.	.	.	2A\	-i	.	2e\	.	.	2c#X\	.	.
.	.	.	2r	.	.	1.f	.	.	2.d\	.	.
.	.	.	1d\	Qui	.	.	.	.	.	.	.
.	.	.	.	.	.	.	.	.	4d\	.	.
=29-	=29-	=29-	=29-	=29-	=29-	=29-	=29-	=29-	=29-	=29-	=29-
!	!	!	!	!	!	!	!	!	!LO:TX:t=P:problem=kreska pseudotaktowa	!	!
0ryy	.	.	.	.	.	.	.	.	1A	-i	.
!	!	!	!LO:TX:t=P:problem=kreska pseudotaktowa	!	!	!	!	!	!	!	!
.	.	.	2c\	.	.	2e\	.	.	.	.	.
!	!	!	!	!	!	!	!	!	!LO:TX:t=P:problem=kreska pseudotaktowa	!	!
.	.	.	2B-\	tol-	.	2d\	.	.	1r	.	.
!	!	!	!	!	!	!LO:TX:t=P:problem=kreska pseudotaktowa	!	!	!	!	!
.	.	.	2A\	.	.	2f\	.	.	.	.	.
=30-	=30-	=30-	=30-	=30-	=30-	=30-	=30-	=30-	=30-	=30-	=30-
0ryy	.	.	2.G/	.	.	4e\	.	.	2r	.	.
.	.	.	.	.	.	4d\	.	.	.	.	.
!	!	!	!	!	!	!	!	!	!LO:TX:t=P:problem=kreska pseudotaktowa	!	!
.	.	.	.	.	.	1d	.	.	2d\	qui	.
.	.	.	4F/	.	.	.	.	.	.	.	.
.	.	.	2.E/	.	.	.	.	.	4e\	tol-	.
.	.	.	.	.	.	.	.	.	4f\	.	.
!	!	!	!	!	!	!LO:TX:t=P:problem=kreska pseudotaktowa	!	!	!	!	!
.	.	.	.	.	.	2c#X\	.	.	4g\	.	.
.	.	.	4E/	.	.	.	.	.	8f\L	.	.
!	!	!	!	!	!	!	!	!	!LO:TX:t=P:problem=kreska pseudotaktowa	!	!
.	.	.	.	.	.	.	.	.	8e\J	.	.
=31-	=31-	=31-	=31-	=31-	=31-	=31-	=31-	=31-	=31-	=31-	=31-
0ryy	.	.	2D,</	-lis	.	2d\	-i	.	2f\	-lis	.
.	.	.	2d\	pec-	.	4r	.	.	2f\	pec-	.
!	!	!	!	!	!	!LO:TX:t=P:problem=kreska pseudotaktowa	!	!	!	!	!
.	.	.	.	.	.	4d\	qui	.	.	.	.
!	!	!	!	!	!	!	!	!	!LO:TX:t=P:problem=kreska pseudotaktowa	!	!
.	.	.	2c#X\	-ca-	.	4e\	.	.	1e	-ca-	.
.	.	.	.	.	.	4f\	.	.	.	.	.
!	!	!	!LO:TX:t=P:problem=kreska pseudotaktowa	!	!	!	!	!	!	!	!
.	.	.	2c#\	-ta	.	4g\	tol-	.	.	.	.
.	.	.	.	.	.	8f\L	.	.	.	.	.
!	!	!	!	!	!	!LO:TX:t=P:problem=kreska pseudotaktowa	!	!	!	!	!
.	.	.	.	.	.	8e\J	.	.	.	.	.
=32-	=32-	=32-	=32-	=32-	=32-	=32-	=32-	=32-	=32-	=32-	=32-
0ryy	.	.	1d	mun-	.	2f,<\	-lis	.	2d\	-ta	.
*	*	*	*	*	*	*	*	*	*	*ij	*
.	.	.	.	.	.	2f\	pec-	.	2.d\	pec-	.
!	!	!	!LO:TX:t=P:problem=kreska pseudotaktowa	!	!	!LO:TX:t=P:problem=kreska pseudotaktowa	!	!	!	!	!
.	.	.	1A	-di,	.	1e	-ca-	.	.	.	.
.	.	.	.	.	.	.	.	.	4d\	-ca-	.
.	.	.	.	.	.	.	.	.	2c\	-ta	.
*	*	*	*	*	*	*	*	*	*	*Xij	*
=33-	=33-	=33-	=33-	=33-	=33-	=33-	=33-	=33-	=33-	=33-	=33-
0ryy	.	.	2r	.	.	4d\	-ta	.	1B-	mun-	.
.	.	.	.	.	.	2d\	pec-	.	.	.	.
.	.	.	2.d\	mi-	.	.	.	.	.	.	.
.	.	.	.	.	.	4e\	.	.	.	.	.
!	!	!	!	!	!	!	!	!	!LO:TX:t=P:problem=kreska pseudotaktowa	!	!
.	.	.	.	.	.	2f\	-ca-	.	1A	-di	.
.	.	.	4d\	-ſe-	.	.	.	.	.	.	.
!	!	!	!	!	!	!LO:TX:t=P:problem=kreska pseudotaktowa	!	!	!	!	!
.	.	.	2cny\	-re-	.	2e\	-ta	.	.	.	.
=34-	=34-	=34-	=34-	=34-	=34-	=34-	=34-	=34-	=34-	=34-	=34-
0ryy	.	.	1B-	-re	.	2d\	pec-	.	2r	.	.
!	!	!	!	!	!	!	!	!	!LO:TX:t=P:problem=kreska pseudotaktowa	!	!
.	.	.	.	.	.	2G/	.	.	2d\	qui	.
.	.	.	2A/	no-	.	1c	-ca-	.	2e\	tol-	.
!	!	!	!LO:TX:t=P:problem=kreska pseudotaktowa	!	!	!	!	!	!	!	!
.	.	.	2F/	.	.	.	.	.	1f\	.	.
=35-	=35-	=35-	=35-	=35-	=35-	=35-	=35-	=35-	=35-	=35-	=35-
0ryy	.	.	1B-	.	.	2d\	-ta	.	.	.	.
!	!	!	!	!	!	!LO:TX:t=P:problem=kreska pseudotaktowa	!	!	!LO:TX:t=P:problem=kreska pseudotaktowa	!	!
.	.	.	.	.	.	2f\	.	.	2d\	.	.
.	.	.	2G/	.	.	4e\	mun-	.	4g\	.	.
.	.	.	.	.	.	4d\	.	.	4f\	.	.
.	.	.	2B-\	.	.	2.d\	.	.	4f\	.	.
.	.	.	.	.	.	.	.	.	8e\L	.	.
.	.	.	.	.	.	.	.	.	8d\J	.	.
=36-	=36-	=36-	=36-	=36-	=36-	=36-	=36-	=36-	=36-	=36-	=36-
0ryy	.	.	1A	.	.	.	.	.	1e	.	.
.	.	.	.	.	.	8c#X/L	.	.	.	.	.
!	!	!	!	!	!	!LO:SIC:v:s=8Bn	!	!	!	!	!
.	.	.	.	.	.	8B-/J	.	.	.	.	.
.	.	.	.	.	.	2c#/	.	.	.	.	.
!	!	!	!LO:TX:t=P:problem=kreska pseudotaktowa	!	!	!LO:TX:t=P:problem=kreska pseudotaktowa	!	!	!	!	!
.	.	.	1D	-bis.	.	1d	-di.	.	2d\	-lis	.
.	.	.	.	.	.	.	.	.	2.d\	pec-	.
=37-	=37-	=37-	=37-	=37-	=37-	=37-	=37-	=37-	=37-	=37-	=37-
!	!	!	!	!	!	!LO:LB:g=original	!	!	!	!	!
*	*	*	*	*	*	*xywh-#125:7353,4438,6092,744	*	*	*	*	*
0ryy	.	.	00r	.	.	2r	.	.	.	.	.
.	.	.	.	.	.	.	.	.	4e\	.	.
!	!	!	!	!	!	!	!	!	!LO:TX:t=P:problem=kreska pseudotaktowa	!	!
.	.	.	.	.	.	2.d\	mi-	.	2f\	.	.
.	.	.	.	.	.	.	.	.	2B-/	-ca-	.
.	.	.	.	.	.	4e\	-ſe-	.	.	.	.
!	!	!	!	!	!	!LO:TX:t=P:problem=kreska pseudotaktowa	!	!	!	!	!
.	.	.	.	.	.	2f\	-re-	.	2A/	-ta	.
=38-	=38-	=38-	=38-	=38-	=38-	=38-	=38-	=38-	=38-	=38-	=38-
0ryy	.	.	.	.	.	2B-/	.	.	4d\	mun-	.
.	.	.	.	.	.	.	.	.	4e\	.	.
!	!	!	!	!	!	!LO:TX:t=P:problem=kreska pseudotaktowa	!	!	!	!	!
.	.	.	.	.	.	2A/	-re	.	4f\	.	.
.	.	.	.	.	.	.	.	.	4e\	.	.
.	.	.	.	.	.	4d\	no-	.	4f\	.	.
.	.	.	.	.	.	4e\	.	.	4g\	.	.
.	.	.	.	.	.	4f\	.	.	2a\	.	.
.	.	.	.	.	.	4e\	.	.	.	.	.
=39-	=39-	=39-	=39-	=39-	=39-	=39-	=39-	=39-	=39-	=39-	=39-
0ryy	.	.	00r	.	.	4f\	.	.	2d\	di	.
.	.	.	.	.	.	4g\	.	.	.	.	.
!	!	!	!	!	!	!	!	!	!	!	!
!	!	!	!	!	!	!LO:TX:t=P:problem=kreska pseudotaktowa	!	!	!LO:TX:t=P:problem=kreska pseudotaktowa	!	!
.	.	.	.	.	.	2a\	.	.	2d\	mi-	.
!	!	!	!	!	!	!	!	!	!LO:LB:g=original	!	!
*	*	*	*	*	*	*	*	*	*xywh-#41:7214,4383,6072,697	*	*
.	.	.	.	.	.	2d\	.	.	2.f\	-se-	.
.	.	.	.	.	.	2d\	-bis	.	.	.	.
!	!	!	!	!	!	!	!	!	!LO:TX:t=P:problem=kreska pseudotaktowa	!	!
.	.	.	.	.	.	.	.	.	4e\	.	.
=40-	=40-	=40-	=40-	=40-	=40-	=40-	=40-	=40-	=40-	=40-	=40-
0ryy	.	.	.	.	.	2.f\	mi-	.	2.d\	-re-	.
.	.	.	.	.	.	4e\	-ſe-	.	4c\	.	.
.	.	.	.	.	.	2.d\	-re-	.	2B-/	.	.
.	.	.	.	.	.	.	.	.	[<2f\	.	.
!	!	!	!	!	!	!LO:TX:t=P:problem=kreska pseudotaktowa	!	!	!	!	!
.	.	.	.	.	.	4cny\	.	.	.	.	.
=41-	=41-	=41-	=41-	=41-	=41-	=41-	=41-	=41-	=41-	=41-	=41-
!	!	!	!LO:TX:b:t=Vertat(ur)	!	!	!	!	!	!LO:N:xstem:cue	!	!
!	!	!	!LO:TX:t=P:problem=kreska pseudotaktowa	!	!	!	!	!	!	!	!
0ryy	.	.	0r	.	.	4B-/	-re	.	4f\]	.	.
.	.	.	.	.	.	2c/	no-	.	8e\L	-re	.
.	.	.	.	.	.	.	.	.	8d\J	.	.
.	.	.	.	.	.	.	.	.	8e\L	no-	.
.	.	.	.	.	.	.	.	.	8f\J	.	.
!	!	!	!	!	!	!	!	!	!LO:TX:t=P:problem=kreska pseudotaktowa	!	!
.	.	.	.	.	.	4B-/	.	.	[<4g\	.	.
.	.	.	.	.	.	4B-/	.	.	4g]	.	.
.	.	.	.	.	.	8A/L	.	.	8f#X\L	.	.
.	.	.	.	.	.	8G/J	.	.	8e\J	.	.
!	!	!	!	!	!	!LO:TX:t=P:problem=kreska pseudotaktowa	!	!	!	!	!
.	.	.	.	.	.	2A/	.	.	2f#\	.	.
=42-	=42-	=42-	=42-	=42-	=42-	=42-	=42-	=42-	=42-	=42-	=42-
!	!	!	!LO:PB:g=original	!	!	!	!	!	!LO:TX:t=P:problem=kreska pseudotaktowa	!	!
*	*	*	*xywh-#202:1214,766,5874,818	*	*	*	*	*	*	*	*
0ryy	.	.	2r	.	.	2G,</	-bis	.	1g	-bis	.
!	!	!	!LO:TX:t=P:problem=kreska pseudotaktowa	!	!	!LO:TX:t=P:problem=kreska pseudotaktowa	!	!	!	!	!
.	.	.	2G/	-mi-	.	2d\	mi-	.	.	.	.
.	.	.	2.d\	-se-	.	2.f\	-ſe-	.	1r	.	.
.	.	.	4d\	-re-	.	4f\	.	.	.	.	.
=43-	=43-	=43-	=43-	=43-	=43-	=43-	=43-	=43-	=43-	=43-	=43-
0ryy	.	.	4c\	-re-	.	4e\	-re-	.	2r	.	.
.	.	.	4A\	-re	.	4c\	.	.	.	.	.
!	!	!	!	!	!	!	!	!	!LO:TX:t=P:problem=kreska pseudotaktowa	!	!
.	.	.	1d	no-	.	1f	-re	.	2d\	mi-	.
.	.	.	.	.	.	.	.	.	2.fny\	se-	.
!	!	!	!LO:TX:t=P:problem=kreska pseudotaktowa	!	!	!LO:TX:t=P:problem=kreska pseudotaktowa	!	!	!	!	!
.	.	.	2B-\	.	.	2d\	no-	.	.	.	.
.	.	.	.	.	.	.	.	.	4f\	-re-	.
=44-	=44-	=44-	=44-	=44-	=44-	=44-	=44-	=44-	=44-	=44-	=44-
0ryy	.	.	2c\	.	.	2g\	.	.	4e\	-[re]	.
.	.	.	.	.	.	.	.	.	4c\	.	.
.	.	.	2d\	-bis	.	2f\	-bis	.	1f	no-	.
.	.	.	2.c\	mi-	.	2.g\	mi-	.	.	.	.
!	!	!	!	!	!	!	!	!	!LO:TX:t=P:problem=kreska pseudotaktowa	!	!
.	.	.	.	.	.	.	.	.	2e\	.	.
!	!	!	!LO:TX:t=P:problem=kreska pseudotaktowa	!	!	!LO:TX:t=P:problem=kreska pseudotaktowa	!	!	!	!	!
.	.	.	4c\	-ſe-	.	4g\	-ſe-	.	.	.	.
=45-	=45-	=45-	=45-	=45-	=45-	=45-	=45-	=45-	=45-	=45-	=45-
0ryy	.	.	2A\	-re-	.	2c\	-re-	.	2f,<\	-bis	.
.	.	.	1B-	-re	.	1d	-re	.	2f\	mi-	.
.	.	.	.	.	.	.	.	.	2.g\	.	.
!	!	!	!	!	!	!LO:TX:t=P:problem=kreska pseudotaktowa	!	!	!	!	!
.	.	.	4A/	no-	.	2e\	.	.	.	.	.
.	.	.	4G/	.	.	.	.	.	4g\	-ſe-	.
=46-	=46-	=46-	=46-	=46-	=46-	=46-	=46-	=46-	=46-	=46-	=46-
0ryy	.	.	2A\	-bis	.	4f\	no-	.	2c\	-re-	.
.	.	.	.	.	.	4e\	.	.	.	.	.
.	.	.	2B-\	mi-	.	4d\	.	.	2.d\	-re	.
!	!	!	!	!	!	!LO:TX:t=P:problem=kreska pseudotaktowa	!	!	!	!	!
.	.	.	.	.	.	4c\	.	.	.	.	.
.	.	.	2G/	-ſe-	.	2B-/	.	.	.	.	.
.	.	.	.	.	.	.	.	.	4e\	.	.
!	!	!	!LO:TX:t=P:problem=kreska pseudotaktowa	!	!	!	!	!	!	!	!
.	.	.	2F/	.	.	2c/	.	.	1f\	.	.
=47-	=47-	=47-	=47-	=47-	=47-	=47-	=47-	=47-	=47-	=47-	=47-
*	*	*	*	*	*	*custos:G	*	*	*	*	*
!	!	!	!	!	!	!LO:TX:b:t=Cito.	!	!	!	!	!
!	!	!	!	!	!	!LO:TX:t=P:problem=kreska pseudotaktowa	!	!	!	!	!
0ryy	.	.	1B-	-re-	.	1d	.	.	.	.	.
!	!	!	!	!	!	!	!	!	!LO:TX:t=P:problem=kreska pseudotaktowa	!	!
.	.	.	.	.	.	.	.	.	2B-/	.	.
!	!	!	!	!	!	!LO:PB:g=original	!	!	!	!	!
*	*	*	*	*	*	*xywh-#126:1350,790,5872,770	*	*	*	*	*
.	.	.	2E-X/	-re	.	2G/	.	.	1B-	no-	.
!	!	!	!	!	!	!LO:TX:t=P:problem=kreska pseudotaktowa	!	!	!	!	!
.	.	.	2G/	no-	.	2B-/	.	.	.	.	.
=48-	=48-	=48-	=48-	=48-	=48-	=48-	=48-	=48-	=48-	=48-	=48-
0ryy	.	.	2.F/	.	.	4A/	.	.	2c,<\	-bis	.
.	.	.	.	.	.	4F/	.	.	.	.	.
.	.	.	.	.	.	1B-	.	.	(2d\	mi-	.
.	.	.	4F/	.	.	.	.	.	.	.	.
!	!	!	!LO:TX:t=P:problem=kreska pseudotaktowa	!	!	!	!	!	!	!	!
.	.	.	1F	-bis.	.	.	.	.	2.c\)	.	.
!	!	!	!	!	!	!LO:TX:t=P:problem=kreska pseudotaktowa	!	!	!	!	!
.	.	.	.	.	.	2A/	.	.	.	.	.
!	!	!	!	!	!	!	!	!	!LO:TX:t=P:problem=kreska pseudotaktowa	!	!
.	.	.	.	.	.	.	.	.	4c\	-ſe-	.
=49-	=49-	=49-	=49-	=49-	=49-	=49-	=49-	=49-	=49-	=49-	=49-
0ryy	.	.	2r	.	.	2B-/	-bis	.	2d\	-re-	.
.	.	.	1B-	mi-	.	1d	mi-	.	1f	.	.
!	!	!	!	!	!	!LO:TX:t=P:problem=kreska pseudotaktowa	!	!	!	!	!
.	.	.	2A/	-ſe-	.	2c\	-ſe-	.	2f\	-re	.
=50-	=50-	=50-	=50-	=50-	=50-	=50-	=50-	=50-	=50-	=50-	=50-
0ryy	.	.	2G/	-re-	.	2B-/	-re-	.	2.d\	no-	.
!	!	!	!LO:TX:t=P:problem=kreska pseudotaktowa	!	!	!LO:TX:t=P:problem=kreska pseudotaktowa	!	!	!	!	!
.	.	.	2F#X/	-re	.	2A/	-re	.	.	.	.
.	.	.	.	.	.	.	.	.	4c/	.	.
.	.	.	2G/	no-	.	2d\	no-	.	2B-/	.	.
.	.	.	2.D/	.	.	2.f\	.	.	2A/	.	.
=51-	=51-	=51-	=51-	=51-	=51-	=51-	=51-	=51-	=51-	=51-	=51-
0ryy	.	.	.	.	.	.	.	.	1f	.	.
.	.	.	4Eny/	.	.	4e\	.	.	.	.	.
!	!	!	!	!	!	!LO:TX:t=P:problem=kreska pseudotaktowa	!	!	!	!	!
.	.	.	4Fny/	.	.	2d\	.	.	.	.	.
.	.	.	4G/	.	.	.	.	.	.	.	.
.	.	.	2A\	.	.	2c#X\	.	.	2e\	.	.
!	!	!	!LO:TX:t=P:problem=kreska pseudotaktowa	!	!	!	!	!	!LO:TX:t=P:problem=kreska pseudotaktowa	!	!
.	.	.	2B-\	.	.	2.d\	.	.	2d\	.	.
=52-	=52-	=52-	=52-	=52-	=52-	=52-	=52-	=52-	=52-	=52-	=52-
!LO:TX:b:i:t=Agnus 3tium\nut 1mum	!	!	!	!	!	!	!	!	!	!	!
0ryy	.	.	1A	.	.	.	.	.	1e	.	.
.	.	.	.	.	.	8c#X/L	.	.	.	.	.
!	!	!	!	!	!	!LO:SIC:v:s=8Bn	!	!	!	!	!
.	.	.	.	.	.	8B-/J	.	.	.	.	.
.	.	.	.	.	.	2c#X\	.	.	.	.	.
!	!	!	!LO:N:vis=0	!	!	!LO:N:vis=0	!	!	!LO:TX:b:t=Agn(us) 3tium\nut 1mum	!	!
!	!	!	!LO:TX:b:i:t=Agn(us) 3tium\nut 1mum	!	!	!LO:TX:b:t=Agn(us) 3tium ut 1mum	!	!	!LO:N:vis=0	!	!
.	.	.	1D;	-bis.	.	1d;	-bis.	.	1d;	-bis.	.
==	==	==	==	==	==	==	==	==	==	==	==
*-	*-	*-	*-	*-	*-	*-	*-	*-	*-	*-	*-
!!!RDF**kern: > = above
!!!RDF**kern: < = below
!!!system-decoration: [(s1,s2,s3,s4)]
!!!ENC: Krzysztof Stępień
!!!END: 2021-02-25
!!!YEC: Copyright 2022 Narodowy Instytut Fryderyka Chopina (https://polishscores.org)
!!!YEM: License CC-BY-4.0 (https://creativecommons.org/licenses/by/4.0)
!!!IIIF: https://repozytorium.nifc.pl/islandora/object/pl-kk%3A1956/datastream/IIIF/view
!!!ENC-iiif: Konrad Tyszka
!!!END-iiif: 2022-09-02
